X: 1
T: Reel des vieux
T: Old Folks' Reel
C: trad Qu\'ebec
R: reel
Z: 2007 John Chambers <jc:trillian.mit.edu> from Pascal Gemme's blog
M: 2/4
L: 1/16
K: D
|: [A3D3]B AFDF | defe dBAF | AD[A2D2] [D4A,4] \
|  A2AB AFDF |1 GEED EFGB :|2 GEED E3A ||
|: Acde fdec | Acde fe(3eee | Acde fdec | BdAF EEFE :|
[| Acde fdec | Acde fefg | affe fefg | affe fedf |[M:3/4] edAF E2ED EFGB |]
